X:447
T:B447-  State and Ambition
Q:1/4=120
L:1/4
M:3/4
K:Gm
Bd(c/B/)|cA(A/B/4c/4)|B3/2A/G|A^F(E/D/)|\
Bd(c/B/)|cec|d3/2g/^f|g3:|\
fa(g/f/)|f2(e/d/)|c3/2B/c|dfd|\
gbg|f2a|f3/2=e/d|d2c|\
(d/e/)fd|d3/2B/d|eA2|^F3/2G/A|\
(B/c/d/B/)e|cd2|B3/2A/G|G3|]
